X: 24
T: Little Burnt Potato
Z: John Chambers <jc:trillian.mit.edu>
M: 6/8
L: 1/8
K: D
   f2g \
| "D"a^ga "A7"bag | "D"afd Ade | "Bm"f2f g2f | "Em"e3 Bcd | "A7"efe dcB |
| "A7"Ace a3 |1 a^ga ba=g | "D"f3 :|2 "A7"a^ga b2c | "D"d3 |: d2e | "D"f2A f2A | "Bm"f3- f2e |
| "Bm"def agf | "Em"g3- gef | gba gfe | "A7"dcB A3 |1 a^ga ba=g | "D"f3 :|2 "A7"a^ga b2c | "D"d3 |]

%%sep 1 1 500

